Numix-Light/16/status/indicator-keyboard-Ie.svg

<?xml version="1.0" encoding="UTF-8" standalone="no"?>
<svg
   xmlns:dc="http://purl.org/dc/elements/1.1/"
   xmlns:cc="http://creativecommons.org/ns#"
   xmlns:rdf="http://www.w3.org/1999/02/22-rdf-syntax-ns#"
   xmlns:svg="http://www.w3.org/2000/svg"
   xmlns="http://www.w3.org/2000/svg"
   xmlns:sodipodi="http://sodipodi.sourceforge.net/DTD/sodipodi-0.dtd"
   xmlns:inkscape="http://www.inkscape.org/namespaces/inkscape"
   viewBox="0 0 16 16"
   id="svg2"
   version="1.1"
   inkscape:version="0.91 r13725"
   sodipodi:docname="indicator-keyboard-Ie.svg">
  <metadata
     id="metadata13">
    <rdf:RDF>
      <cc:Work
         rdf:about="">
        <dc:format>image/svg+xml</dc:format>
        <dc:type
           rdf:resource="http://purl.org/dc/dcmitype/StillImage" />
      </cc:Work>
    </rdf:RDF>
  </metadata>
  <defs
     id="defs11" />
  <sodipodi:namedview
     pagecolor="#ffffff"
     bordercolor="#666666"
     borderopacity="1"
     objecttolerance="10"
     gridtolerance="10"
     guidetolerance="10"
     inkscape:pageopacity="0"
     inkscape:pageshadow="2"
     inkscape:window-width="640"
     inkscape:window-height="480"
     id="namedview9"
     showgrid="false"
     inkscape:zoom="14.75"
     inkscape:cx="8"
     inkscape:cy="8"
     inkscape:window-x="65"
     inkscape:window-y="24"
     inkscape:window-maximized="0"
     inkscape:current-layer="svg2" />
  <path
     style="fill:#353535;fill-opacity:1"
     d="M 1.5996094 0 C 0.71320937 2.9605947e-16 0 0.71320937 0 1.5996094 L 0 14.400391 C 2.9605947e-16 15.286791 0.71320937 16 1.5996094 16 L 14.400391 16 C 15.286791 16 16 15.286791 16 14.400391 L 16 1.5996094 C 16 0.71320937 15.286791 0 14.400391 0 L 1.5996094 0 z M 5.0878906 4.8320312 L 5.7011719 4.8320312 L 5.7011719 11.068359 L 5.0878906 11.068359 L 5.0878906 4.8320312 z M 9.0390625 6.3085938 C 9.6090625 6.3085938 10.062437 6.4932344 10.398438 6.8652344 C 10.740438 7.2372344 10.912109 7.8119375 10.912109 8.5859375 C 10.912109 8.6339375 10.908344 8.6805156 10.902344 8.7285156 C 10.902344 8.7765156 10.900531 8.8212812 10.894531 8.8632812 L 7.6269531 8.8632812 C 7.6449531 9.4332812 7.7848281 9.8717345 8.0488281 10.177734 C 8.3128281 10.483734 8.7345469 10.636719 9.3105469 10.636719 C 9.6285469 10.636719 9.880406 10.606875 10.066406 10.546875 C 10.252406 10.486875 10.386703 10.436531 10.470703 10.394531 L 10.578125 10.898438 C 10.494125 10.946438 10.335563 11.002359 10.101562 11.068359 C 9.8735623 11.134359 9.6030156 11.167969 9.2910156 11.167969 C 8.8830156 11.167969 8.5360469 11.108281 8.2480469 10.988281 C 7.9600469 10.868281 7.7231094 10.700375 7.5371094 10.484375 C 7.3511094 10.268375 7.2148594 10.01275 7.1308594 9.71875 C 7.0468594 9.41875 7.0058594 9.0922813 7.0058594 8.7382812 C 7.0058594 8.3302812 7.0617812 7.9757813 7.1757812 7.6757812 C 7.2957812 7.3697813 7.4487656 7.1141562 7.6347656 6.9101562 C 7.8267656 6.7061563 8.0432031 6.5569375 8.2832031 6.4609375 C 8.5292031 6.3589375 8.7810625 6.3085938 9.0390625 6.3085938 z M 9.0488281 6.8300781 C 8.8388281 6.8300781 8.6504219 6.8710781 8.4824219 6.9550781 C 8.3204219 7.0390781 8.1748281 7.1548281 8.0488281 7.2988281 C 7.9288281 7.4368281 7.8337188 7.5972031 7.7617188 7.7832031 C 7.6957187 7.9692031 7.6565312 8.1651406 7.6445312 8.3691406 L 10.308594 8.3691406 C 10.296594 7.8831406 10.182797 7.504375 9.9667969 7.234375 C 9.7507969 6.964375 9.4448281 6.8300781 9.0488281 6.8300781 z "
     id="path4" />
</svg>

<svg xmlns="http://www.w3.org/2000/svg" viewBox="0 0 16 16">
 <path d="m 1.6 0 c -0.886 0 -1.6 0.713 -1.6 1.6 l 0 12.801 c 0 0.886 0.713 1.6 1.6 1.6 l 12.801 0 c 0.886 0 1.6 -0.713 1.6 -1.6 l 0 -12.801 c 0 -0.886 -0.713 -1.6 -1.6 -1.6 l -12.801 0 z m 3.488 4.832 l 0.613 0 l 0 6.236 l -0.613 0 l 0 -6.236 z m 3.951 1.477 c 0.57 0 1.023 0.185 1.359 0.557 c 0.342 0.372 0.514 0.947 0.514 1.721 c 0 0.048 -0.004 0.095 -0.01 0.143 c 0 0.048 -0.002 0.093 -0.008 0.135 l -3.268 0 c 0.018 0.57 0.158 1.01 0.422 1.314 c 0.264 0.306 0.686 0.459 1.262 0.459 c 0.318 0 0.57 -0.03 0.756 -0.09 c 0.186 -0.06 0.32 -0.11 0.404 -0.152 l 0.107 0.504 c -0.084 0.048 -0.243 0.104 -0.477 0.17 c -0.228 0.066 -0.499 0.1 -0.811 0.1 c -0.408 0 -0.755 -0.06 -1.043 -0.18 c -0.288 -0.12 -0.525 -0.288 -0.711 -0.504 c -0.186 -0.216 -0.322 -0.472 -0.406 -0.766 c -0.084 -0.3 -0.125 -0.626 -0.125 -0.98 c 0 -0.408 0.056 -0.762 0.17 -1.062 c 0.12 -0.306 0.273 -0.562 0.459 -0.766 c 0.192 -0.204 0.408 -0.353 0.648 -0.449 c 0.246 -0.102 0.498 -0.152 0.756 -0.152 z m 0.01 0.521 c -0.21 0 -0.398 0.041 -0.566 0.125 c -0.162 0.084 -0.308 0.2 -0.434 0.344 c -0.12 0.138 -0.215 0.298 -0.287 0.484 c -0.066 0.186 -0.105 0.382 -0.117 0.586 l 2.664 0 c -0.012 -0.486 -0.126 -0.865 -0.342 -1.135 c -0.216 -0.27 -0.522 -0.404 -0.918 -0.404 z" style="fill:#353535;fill-opacity:1"/>
</svg>
